ix/messages-2_broken.svg

<svg viewBox="0 0 24 24" fill="none" xmlns="http://www.w3.org/2000/svg" height="1em" width="1em">
  <path d="M13.1698 2C8.28985 2 4.33984 5.68999 4.33984 10.24C4.33984 10.5 4.34985 10.75 4.37985 11C5.26985 10.42 6.33985 10.09 7.49985 10.09C10.5398 10.09 12.9998 12.39 12.9998 15.23C12.9998 16.42 12.5599 17.52 11.8199 18.39C12.2599 18.45 12.7098 18.48 13.1698 18.48L17.3598 20.97C18.0698 21.4 18.9598 20.82 18.8598 19.99L18.4698 16.83C20.6098 15.33 21.9998 12.94 21.9998 10.24C21.9998 7.16999 20.1999 4.49001 17.5199 3.07001" stroke="#292D32" stroke-width="1.5" stroke-linecap="round" stroke-linejoin="round"/>
  <path d="M4.38 11.0001C5.27 10.4201 6.34 10.0901 7.5 10.0901C10.54 10.0901 13 12.39 13 15.23C13 16.42 12.56 17.5201 11.82 18.3901C10.83 19.5901 9.26 20.36 7.5 20.36L4.89 21.91C4.45 22.18 3.89 21.81 3.95 21.3L4.2 19.3301C2.86 18.4001 2 16.91 2 15.23C2 14.93 2.03 14.64 2.08 14.36" stroke="#292D32" stroke-width="1.5" stroke-linecap="round" stroke-linejoin="round"/>
</svg>

<svg viewBox="0 0 24 24" fill="none" xmlns="http://www.w3.org/2000/svg" height="1em" width="1em">
  <path d="M13.17 2c-4.88 0-8.83 3.69-8.83 8.24 0 .26.01.51.04.76.89-.58 1.96-.91 3.12-.91 3.04 0 5.5 2.3 5.5 5.14 0 1.19-.44 2.29-1.18 3.16.44.06.89.09 1.35.09l4.19 2.49c.71.43 1.6-.15 1.5-.98l-.39-3.16c2.14-1.5 3.53-3.89 3.53-6.59 0-3.07-1.8-5.75-4.48-7.17" stroke="#292D32" stroke-width="1.5" stroke-linecap="round" stroke-linejoin="round"/>
  <path d="M4.38 11c.89-.58 1.96-.91 3.12-.91 3.04 0 5.5 2.3 5.5 5.14 0 1.19-.44 2.29-1.18 3.16-.99 1.2-2.56 1.97-4.32 1.97l-2.61 1.55c-.44.27-1-.1-.94-.61l.25-1.97C2.86 18.4 2 16.91 2 15.23c0-.3.03-.59.08-.87" stroke="#292D32" stroke-width="1.5" stroke-linecap="round" stroke-linejoin="round"/>
</svg>
